X:2023
T:Boys of the Town
Z: id:dc-jig-161
M:6/8
L:1/8
K:G Major
Bd|ged B2A|BGE GAc|BdB c2A|GBd eaf|!
ged B2A|BGE GAc|BdB AGA|BGF G:|!
Bc|def g2f|eaa eaa|bag e2d|efg efg|!
def gfg|afd efg|edB AGA|BGF G:|!


